X: 12157
T: Executioner's, The
R: jig
M: 6/8
K: Gdorian
|:G3 GAB|d2B ~A3|G3 GAB|d2B A2A|
G3 GAB|d2B A2B|A2B c2B|1 A2G A2B:|2 A2G A2G||
|:d2b a2g|f2e d2e|f2e g2f|e2d e2d|
d2b a2g|f2d ~e3|~f3 ~f3|~e3 e2d:|

